X:1
T: Fransk shottis
R: Polska
S: Utlärd av Marit Nordfors
Z: Karin Arén
M: 4/4
L: 1/8
K: Am
AB |: (cB) ce (dc) df | ve2 c2 c2 de | ue2 eg (fe) fg | e6 AB | 
(cB) ce (dc) df | e2 c2 c2 de | ue2 dc (Bc) de |1 A6 AB :|2 A(A B)c de fg |
|: va2 (gf) (ef) ge | (de) fg ve4 | uf2 ed B3 f | ved Bd ve4 | 
va2 (gf) (ef) ga | (de) fg ve4 | uf2 ed B3 f |1 ved Bc vA2 (AB) :|2 ved Bc vA4 |]

